<?xml version="1.0" encoding="UTF-8"?>
<map version="1.10" tiledversion="1.12.2" orientation="orthogonal" renderorder="right-down" width="156" height="20" tilewidth="16" tileheight="16" infinite="0" nextlayerid="3" nextobjectid="9">
 <properties>
  <property name="retrosharpStreamY" type="int" value="0"/>
  <property name="retrosharpWorldHeight" type="int" value="20"/>
  <property name="retrosharpWorldY" type="int" value="0"/>
 </properties>
 <tileset firstgid="1" source="stage1.tsx"/>
 <layer id="1" name="world" width="156" height="20">
  <data encoding="csv">
1,1,1,1,1,1,1,1,1,1,1,1,1,1,1,1,1,1,1,1,1,1,1,1,1,1,1,1,1,1,1,1,1,1,1,1,1,1,1,1,1,1,1,1,1,1,1,1,1,1,1,1,1,1,1,1,1,1,1,1,1,1,1,1,1,1,1,1,1,1,1,1,1,1,1,1,1,1,1,1,1,1,1,1,1,1,1,1,1,1,1,1,1,1,1,1,1,1,1,1,1,1,1,1,1,1,1,1,1,1,1,1,1,1,1,1,1,1,1,1,1,1,1,1,1,1,1,1,1,1,1,1,1,1,1,1,1,1,1,1,1,1,1,1,1,1,1,1,1,1,1,1,1,1,65,66,
1,1,1,1,1,1,1,1,1,1,1,1,1,1,1,1,1,1,1,1,1,1,1,1,1,1,1,1,1,1,1,1,1,1,1,1,1,1,1,1,1,1,1,1,1,1,1,1,1,1,1,1,1,1,1,1,1,1,1,1,1,1,1,6,6,6,1,1,1,1,1,1,1,1,1,1,1,1,1,1,1,1,1,1,1,1,1,1,1,1,39,1,1,1,1,1,1,1,1,1,1,1,1,1,1,1,1,1,1,1,1,1,1,1,1,1,1,1,1,1,1,1,1,1,1,1,1,1,1,1,1,1,1,1,1,1,1,1,1,1,1,1,1,1,1,1,1,1,1,1,1,1,1,1,65,66,
1,1,1,1,1,1,1,1,1,1,1,1,1,1,1,1,1,1,1,1,1,1,1,1,1,1,1,1,1,1,1,1,1,1,1,1,1,1,1,1,1,1,1,1,1,1,1,1,1,1,1,1,1,1,1,1,1,1,1,1,1,1,1,6,6,6,1,1,6,6,6,6,6,6,1,1,1,1,24,25,26,1,1,1,1,1,1,7,8,1,1,1,1,1,1,1,1,1,1,1,1,1,1,1,1,1,1,1,1,1,1,1,1,1,1,1,1,1,1,1,1,1,1,1,1,1,1,1,1,1,1,1,1,1,1,1,1,1,1,1,1,1,1,1,1,1,1,1,1,1,1,1,1,1,65,66,
1,1,1,1,1,1,1,1,1,1,1,1,1,1,1,1,1,1,1,1,1,1,1,1,1,1,1,1,1,1,1,1,1,1,1,1,1,1,1,1,1,1,1,1,1,1,1,1,1,1,1,1,1,1,1,1,1,24,25,26,1,1,1,1,1,1,1,1,6,6,6,6,6,6,1,1,1,1,27,28,29,1,1,1,1,1,1,10,11,1,1,1,1,1,1,1,1,1,1,1,1,1,1,1,1,1,1,1,1,1,1,1,1,1,1,1,1,1,1,1,1,1,1,1,1,1,1,1,1,1,1,1,1,1,1,1,1,1,1,1,1,1,1,1,1,1,1,1,1,1,1,1,1,1,65,66,
1,1,1,1,1,1,1,1,1,1,1,1,1,1,1,1,1,1,1,1,1,1,1,1,1,1,1,1,1,1,1,1,1,1,1,1,1,1,1,1,1,1,1,1,1,1,1,1,1,1,1,1,1,1,1,1,1,27,28,29,1,1,1,23,23,23,1,1,1,1,1,1,1,1,1,1,1,1,1,1,1,1,1,1,1,1,1,10,11,1,1,1,1,1,1,1,1,1,1,1,1,1,1,1,1,1,1,1,1,1,1,1,1,1,1,1,1,1,1,1,1,1,1,1,1,1,1,1,1,1,1,1,1,1,1,1,1,1,1,1,1,1,1,1,1,1,1,1,1,1,1,1,1,1,65,66,
1,1,1,1,1,1,1,1,1,1,1,1,1,1,1,1,1,1,1,1,1,1,1,1,1,1,1,1,1,1,1,1,1,1,1,1,1,1,1,1,1,1,1,1,1,1,1,1,1,1,1,1,1,1,1,1,1,1,1,1,1,1,1,1,1,1,1,1,1,1,1,1,1,1,1,1,1,1,1,1,1,1,1,1,23,23,23,23,23,23,23,23,1,1,1,1,1,1,1,1,1,1,1,1,1,1,1,1,1,1,1,1,1,1,1,1,1,1,1,1,1,1,1,1,1,1,1,1,1,1,1,1,1,1,1,1,1,1,1,1,1,1,1,1,1,1,1,1,1,1,1,1,1,1,65,66,
1,1,1,1,1,1,1,1,1,1,1,1,1,1,1,1,1,1,1,1,1,1,1,1,1,1,1,1,1,1,1,1,1,1,1,1,1,1,1,1,1,1,1,1,1,1,1,1,1,1,1,1,1,1,1,1,1,1,1,1,1,1,1,1,1,1,1,1,23,23,23,23,23,23,1,1,1,84,84,84,84,1,1,1,1,1,1,1,1,1,1,1,1,1,1,1,1,1,1,1,1,1,1,1,1,1,1,1,1,1,1,1,1,1,1,1,1,1,1,1,1,1,1,1,24,25,26,1,1,1,1,1,1,1,1,1,1,1,1,1,1,1,1,1,1,1,1,1,1,1,1,1,1,1,65,66,
1,1,1,1,1,1,1,1,1,1,1,1,1,1,1,1,1,1,1,1,1,1,1,1,1,1,1,1,1,1,1,1,1,1,1,1,1,1,1,1,1,1,1,1,1,1,1,1,1,1,1,1,1,1,1,6,1,1,1,1,6,84,1,1,1,1,1,1,1,1,1,1,1,1,1,1,1,1,1,1,1,1,1,1,1,1,1,1,1,1,1,1,1,1,1,1,1,1,1,1,1,1,1,1,1,1,1,1,1,1,1,1,1,1,1,1,1,1,1,1,1,1,1,1,27,28,29,1,1,1,1,1,1,1,1,1,1,1,1,1,1,1,1,1,1,1,1,1,1,1,1,1,1,1,65,66,
1,1,1,1,1,1,1,1,1,1,1,1,1,1,1,1,1,1,1,1,1,1,1,1,1,1,1,1,1,1,1,1,1,1,1,1,1,1,1,1,1,1,1,1,1,1,1,1,1,1,1,1,1,1,6,1,1,1,1,1,1,84,1,1,1,1,1,1,1,1,1,1,1,1,1,1,1,1,1,1,1,1,1,1,1,1,1,1,1,1,1,1,1,1,1,1,1,24,25,26,1,1,1,1,1,1,1,24,25,26,1,1,1,1,1,1,1,1,1,1,1,1,1,1,1,1,1,1,1,1,1,1,1,1,1,1,24,25,26,1,1,1,1,1,1,1,1,1,1,24,25,26,1,1,65,66,
1,1,1,1,1,1,1,1,1,1,1,1,1,1,1,1,1,1,1,1,1,1,1,1,1,1,1,1,1,1,1,1,1,1,1,1,1,1,1,1,1,1,1,1,1,1,1,1,1,1,1,1,1,6,1,1,1,1,1,1,1,84,1,1,1,1,1,1,1,1,1,1,1,1,1,1,1,1,1,1,1,1,1,1,1,1,1,1,1,1,1,1,1,1,1,1,1,27,28,29,1,1,1,1,1,1,1,27,28,29,1,1,1,1,1,1,1,1,24,25,26,1,1,1,1,1,1,1,1,1,1,1,1,1,1,1,27,28,29,1,1,1,1,1,1,1,1,1,1,27,28,29,1,1,65,66,
1,1,1,1,1,1,1,1,1,1,1,1,1,1,1,1,1,1,1,1,1,1,1,1,1,1,1,1,1,1,1,1,1,24,25,26,1,1,1,1,1,1,1,1,1,1,1,1,1,1,1,1,6,1,1,1,1,1,1,84,84,1,1,1,1,1,1,1,1,1,1,1,1,1,1,1,1,1,1,1,1,1,1,1,1,1,1,1,1,1,1,1,1,1,1,1,1,1,1,1,1,1,1,1,1,1,1,1,1,1,1,1,24,25,25,25,26,1,27,28,29,1,1,1,1,1,1,1,1,1,1,1,1,1,1,1,1,1,1,1,1,1,1,1,24,25,26,1,1,1,1,1,1,1,65,66,
1,1,1,1,1,1,1,1,1,1,1,1,1,1,1,1,1,1,1,1,1,1,1,1,1,1,24,25,26,1,1,1,1,27,28,29,1,1,1,1,1,1,24,25,26,1,1,1,1,1,1,6,1,1,1,1,84,84,84,1,1,1,1,1,1,1,1,1,1,1,1,1,1,1,1,1,1,1,1,1,1,1,1,1,1,1,1,1,1,1,1,1,1,1,1,1,1,1,1,1,1,1,1,1,1,1,1,1,1,1,1,1,27,28,28,28,29,1,1,1,1,1,1,1,1,1,1,1,1,1,1,1,1,1,1,1,1,1,1,1,1,1,1,1,27,28,29,1,1,1,1,1,1,1,65,66,
1,1,1,1,1,1,1,1,1,1,1,1,1,1,1,1,1,1,1,1,1,1,1,1,1,1,27,28,29,1,1,1,1,1,1,1,1,1,1,1,1,1,27,28,29,1,1,1,1,1,1,1,1,1,1,1,1,1,1,1,1,1,1,1,1,1,1,1,1,1,1,1,1,1,1,1,1,1,1,1,1,1,1,1,1,1,1,1,1,1,1,1,1,1,1,1,1,1,1,1,1,1,1,1,1,1,1,1,1,1,1,1,1,1,1,1,1,1,1,1,1,1,1,1,1,1,1,1,1,1,1,1,1,1,1,1,1,1,1,1,1,1,1,1,1,1,1,1,1,1,1,1,1,1,65,66,
1,1,1,1,1,1,1,1,1,1,1,1,1,1,1,1,1,1,1,1,1,1,1,1,1,1,1,1,1,1,1,1,1,1,1,1,1,1,1,1,1,1,1,1,1,1,1,1,1,1,1,1,1,1,1,1,1,1,1,1,1,1,1,1,1,1,1,1,1,1,1,1,1,1,1,1,1,1,1,1,1,1,1,1,1,1,1,1,1,1,1,1,1,1,1,1,1,1,1,1,1,1,1,1,1,1,1,1,1,1,1,1,1,1,1,1,1,1,1,1,1,1,1,1,1,1,1,1,1,1,1,1,1,1,1,1,1,1,1,1,1,1,1,1,1,1,1,1,1,24,25,25,26,1,65,66,
1,1,1,1,1,1,1,1,1,1,1,1,1,1,1,1,1,1,1,1,1,1,1,1,1,1,1,1,1,1,1,1,1,1,1,1,1,1,1,1,1,1,1,1,1,1,1,1,51,52,52,52,52,52,52,52,53,1,1,1,1,1,1,1,1,1,1,1,1,1,1,1,1,1,1,1,1,1,1,1,1,1,1,1,1,1,1,1,1,1,1,1,1,1,1,1,1,1,1,1,1,1,1,1,1,1,1,1,1,1,1,1,1,1,1,1,1,1,1,1,1,1,1,1,1,1,1,1,1,1,1,1,1,1,1,1,1,1,1,1,1,1,1,1,1,1,1,1,1,27,28,28,29,1,65,66,
1,1,1,1,1,1,1,1,12,13,14,1,1,1,1,39,1,1,1,1,39,1,1,1,1,1,1,1,1,1,1,1,1,1,1,1,1,1,1,1,1,1,1,1,1,1,1,12,13,13,13,13,13,14,72,60,61,1,1,1,1,12,13,14,1,1,1,1,1,1,1,1,1,1,1,1,1,1,1,1,1,1,1,1,1,1,1,1,1,1,1,1,1,1,7,8,1,1,1,7,8,1,1,7,8,1,1,1,1,6,6,6,6,6,6,1,1,1,1,1,1,84,84,1,1,1,84,84,1,1,1,1,1,1,1,1,1,1,1,1,1,1,1,1,1,1,1,1,1,1,1,1,39,1,65,66,
1,1,1,1,1,1,1,1,67,68,69,1,1,1,1,1,1,1,1,1,1,1,1,1,1,1,1,1,1,1,45,1,1,1,45,1,1,1,1,1,1,1,1,1,1,1,1,67,68,68,68,68,68,69,81,60,61,1,1,1,1,67,68,69,1,1,1,1,1,1,1,1,1,1,1,39,39,39,39,39,1,1,1,1,1,1,1,1,1,1,1,1,1,1,10,11,1,1,1,10,11,1,1,10,11,1,1,1,1,1,1,1,1,1,1,1,1,1,1,1,84,84,84,1,1,1,84,84,84,1,1,1,1,1,1,1,1,1,1,1,1,1,1,1,1,1,1,1,1,1,1,1,1,1,65,66,
1,1,1,1,1,1,1,1,67,68,69,1,1,1,1,1,1,1,1,1,1,1,1,1,1,1,1,1,1,45,45,1,1,1,45,45,1,1,1,1,37,38,1,1,1,1,30,31,31,31,31,31,31,31,32,72,61,1,1,1,1,67,68,69,1,30,31,31,31,31,31,31,31,32,1,1,1,1,1,1,1,1,1,1,1,1,1,1,1,1,1,1,1,1,10,11,1,1,1,10,11,1,1,10,11,1,1,1,1,1,1,1,1,1,1,1,1,1,1,84,84,84,84,1,1,1,84,84,84,84,1,1,1,1,1,1,1,1,1,1,1,1,1,1,1,1,1,1,1,1,1,1,1,1,65,66,
89,89,89,89,1,1,1,1,16,17,18,1,1,1,1,1,1,1,1,1,1,1,1,1,89,89,1,1,45,45,45,1,1,1,45,45,45,1,1,37,46,55,1,1,1,1,34,35,35,35,35,35,35,35,36,96,97,1,1,1,1,16,17,18,1,34,35,35,35,35,35,35,35,36,1,1,1,1,1,1,1,1,1,1,1,1,1,45,45,1,1,1,103,104,104,104,104,104,104,104,104,104,104,104,104,104,104,104,104,104,104,104,104,104,104,104,104,104,104,104,104,104,105,1,1,1,103,104,104,104,104,104,104,104,104,104,104,104,104,104,104,105,1,1,45,45,1,1,1,1,1,1,1,1,65,66,
103,104,104,104,104,104,104,104,104,104,104,104,104,104,104,104,104,104,104,104,104,104,104,104,104,104,104,104,104,104,104,1,1,1,104,104,104,104,104,104,104,104,104,104,104,104,104,104,104,104,104,104,104,104,104,104,104,104,104,104,104,104,104,104,104,104,104,104,104,104,104,104,104,104,104,104,104,104,104,104,104,104,104,104,104,104,104,105,1,1,1,1,108,109,109,109,109,109,109,109,109,109,109,109,109,109,109,109,109,109,109,109,109,109,109,109,109,109,109,109,109,109,110,1,1,1,108,109,109,109,109,109,109,109,109,109,109,109,109,109,109,110,1,1,1,1,1,1,103,104,104,104,104,104,104,104
</data>
 </layer>
 <objectgroup id="2" name="actors">
  <object id="1" class="Goomba" x="176" y="288">
   <properties>
    <property name="facing" type="int" value="1"/>
    <property name="health" type="int" value="1"/>
   </properties>
  </object>
  <object id="2" class="Goomba" x="320" y="288">
   <properties>
    <property name="facing" type="int" value="1"/>
    <property name="health" type="int" value="1"/>
   </properties>
  </object>
  <object id="3" class="Goomba" x="720" y="288">
   <properties>
    <property name="facing" type="int" value="1"/>
    <property name="health" type="int" value="1"/>
   </properties>
  </object>
  <object id="4" class="Goomba" x="880" y="288">
   <properties>
    <property name="facing" type="int" value="1"/>
    <property name="health" type="int" value="1"/>
   </properties>
  </object>
  <object id="5" class="Goomba" x="1120" y="288">
   <properties>
    <property name="facing" type="int" value="1"/>
    <property name="health" type="int" value="1"/>
   </properties>
  </object>
  <object id="6" class="Goomba" x="1280" y="288">
   <properties>
    <property name="facing" type="int" value="1"/>
    <property name="health" type="int" value="1"/>
   </properties>
  </object>
  <object id="7" class="Goomba" x="1840" y="272">
   <properties>
    <property name="facing" type="int" value="1"/>
    <property name="health" type="int" value="1"/>
   </properties>
  </object>
  <object id="8" class="Goomba" x="2240" y="272">
   <properties>
    <property name="facing" type="int" value="1"/>
    <property name="health" type="int" value="1"/>
   </properties>
  </object>
 </objectgroup>
</map>
